public/personal/legendary.svg

<svg fill="none" height="90" viewBox="0 0 91 90" width="91" xmlns="http://www.w3.org/2000/svg" xmlns:xlink="http://www.w3.org/1999/xlink"><linearGradient id="a" gradientUnits="userSpaceOnUse" x1="6.43262" x2="75.411" y1="5.93359" y2="81.6266"><stop offset="0" stop-color="#566d74"/><stop offset="1" stop-color="#131a1c"/></linearGradient><radialGradient id="b" cx="0" cy="0" gradientTransform="matrix(12.91435343 12.43744474 -12.43744474 12.91435343 42.3529 44.1621)" gradientUnits="userSpaceOnUse" r="1"><stop offset="0" stop-color="#4d646b"/><stop offset="1" stop-color="#131a1c"/><stop offset="1"/></radialGradient><linearGradient id="c" gradientUnits="userSpaceOnUse" x1="45.5004" x2="45.5004" y1="18.1426" y2="71.8602"><stop offset="0" stop-color="#111516"/><stop offset="1" stop-color="#4b5f65"/></linearGradient><linearGradient id="d" gradientUnits="userSpaceOnUse" x1="45.5004" x2="45.5004" y1="18.1426" y2="71.8602"><stop offset="0" stop-color="#fff" stop-opacity=".33"/><stop offset=".0001" stop-color="#fff" stop-opacity=".23"/><stop offset="1" stop-color="#fff" stop-opacity=".05"/></linearGradient><path d="m42.3221 11.4799c1.407-2.45566 4.9488-2.45567 6.3558 0l8.5192 14.8683c.5202.9079 1.4039 1.55 2.4282 1.7642l16.7732 3.5076c2.7702.5794 3.8646 3.9477 1.964 6.0447l-11.508 12.6968c-.7028.7754-1.0403 1.8142-.9275 2.8545l1.8472 17.0362c.3051 2.8137-2.5603 4.8955-5.1419 3.7358l-15.6316-7.0212c-.9545-.4288-2.0469-.4288-3.0014 0l-15.6316 7.0212c-2.5816 1.1597-5.447-.9221-5.1419-3.7358l1.8472-17.0362c.1128-1.0403-.2247-2.0791-.9274-2.8545l-11.5081-12.6968c-1.9006-2.097-.8062-5.4653 1.964-6.0447l16.7732-3.5076c1.0243-.2142 1.908-.8563 2.4282-1.7642z" fill="url(#a)"/><path d="m43.9115 24.5993c.7035-1.2278 2.4744-1.2278 3.1779 0l4.6082 8.0427c.7804 1.3619 2.1059 2.3249 3.6423 2.6462l9.0731 1.8974c1.3851.2897 1.9323 1.9739.982 3.0224l-6.225 6.868c-1.0541 1.163-1.5604 2.7213-1.3912 4.2818l.9992 9.2153c.1525 1.4069-1.2801 2.4477-2.571 1.8679l-8.4555-3.798c-1.4318-.6431-3.0703-.6431-4.5021 0l-8.4556 3.798c-1.2908.5798-2.7235-.461-2.5709-1.8679l.9992-9.2153c.1692-1.5605-.3371-3.1188-1.3912-4.2818l-6.2251-6.868c-.9503-1.0485-.4031-2.7327.982-3.0224l9.0732-1.8974c1.5363-.3213 2.8619-1.2844 3.6422-2.6462z" fill="url(#b)" stroke="url(#c)" stroke-width="3.66257"/><path d="m48.8372 23.5978c-1.4774-2.5784-5.1962-2.5784-6.6735 0l-4.6083 8.0427c-.4942.8625-1.3338 1.4725-2.3068 1.676l-9.0731 1.8974c-2.9087.6083-4.0579 4.1451-2.0622 6.3469l6.225 6.8681c.6676.7365.9883 1.7234.8811 2.7117l-.9992 9.2154c-.3203 2.9543 2.6882 5.1402 5.399 3.9226l8.4556-3.798c.9068-.4073 1.9445-.4073 2.8513 0l8.4555 3.798c2.7108 1.2176 5.7194-.9683 5.3991-3.9226l-.9993-9.2154c-.1071-.9883.2136-1.9752.8812-2.7117l6.225-6.8681c1.9957-2.2018.8465-5.7386-2.0623-6.3469l-9.0731-1.8974c-.973-.2035-1.8125-.8135-2.3067-1.676z" stroke="url(#d)" stroke-width=".366257"/></svg>

<svg width="91" height="90" viewBox="0 0 91 90" fill="none" xmlns="http://www.w3.org/2000/svg">
<path d="M42.3221 11.4799C43.7291 9.02424 47.2709 9.02423 48.6779 11.4799L57.1971 26.3482C57.7173 27.2561 58.601 27.8982 59.6253 28.1124L76.3985 31.62C79.1687 32.1994 80.2631 35.5677 78.3625 37.6647L66.8545 50.3615C66.1517 51.1369 65.8142 52.1757 65.927 53.216L67.7742 70.2522C68.0793 73.0659 65.2139 75.1477 62.6323 73.988L47.0007 66.9668C46.0462 66.538 44.9538 66.538 43.9993 66.9668L28.3677 73.988C25.7861 75.1477 22.9207 73.0659 23.2258 70.2522L25.073 53.216C25.1858 52.1757 24.8483 51.1369 24.1456 50.3615L12.6375 37.6647C10.7369 35.5677 11.8313 32.1994 14.6015 31.62L31.3747 28.1124C32.399 27.8982 33.2827 27.2561 33.8029 26.3482L42.3221 11.4799Z" fill="url(#paint0_linear_525_12542)"/>
<path d="M43.9115 24.5993C44.615 23.3715 46.3859 23.3715 47.0894 24.5993L51.6976 32.642C52.478 34.0039 53.8035 34.9669 55.3399 35.2882L64.413 37.1856C65.7981 37.4753 66.3453 39.1595 65.395 40.208L59.17 47.076C58.1159 48.239 57.6096 49.7973 57.7788 51.3578L58.778 60.5731C58.9305 61.98 57.4979 63.0208 56.207 62.441L47.7515 58.643C46.3197 57.9999 44.6812 57.9999 43.2494 58.643L34.7938 62.441C33.503 63.0208 32.0703 61.98 32.2229 60.5731L33.2221 51.3578C33.3913 49.7973 32.885 48.239 31.8309 47.076L25.6058 40.208C24.6555 39.1595 25.2027 37.4753 26.5878 37.1856L35.661 35.2882C37.1973 34.9669 38.5229 34.0038 39.3032 32.642L43.9115 24.5993Z" fill="url(#paint1_radial_525_12542)" stroke="url(#paint2_linear_525_12542)" stroke-width="3.66257"/>
<path d="M48.8372 23.5978C47.3598 21.0194 43.641 21.0194 42.1637 23.5978L37.5554 31.6405C37.0612 32.503 36.2216 33.113 35.2486 33.3165L26.1755 35.2139C23.2668 35.8222 22.1176 39.359 24.1133 41.5608L30.3383 48.4289C31.0059 49.1654 31.3266 50.1523 31.2194 51.1406L30.2202 60.356C29.8999 63.3103 32.9084 65.4962 35.6192 64.2786L44.0748 60.4806C44.9816 60.0733 46.0193 60.0733 46.9261 60.4806L55.3816 64.2786C58.0924 65.4962 61.101 63.3103 60.7807 60.356L59.7814 51.1406C59.6743 50.1523 59.995 49.1654 60.6626 48.4289L66.8876 41.5608C68.8833 39.359 67.7341 35.8222 64.8253 35.2139L55.7522 33.3165C54.7792 33.113 53.9397 32.503 53.4455 31.6405L48.8372 23.5978Z" stroke="url(#paint3_linear_525_12542)" stroke-width="0.366257"/>
<defs>
<linearGradient id="paint0_linear_525_12542" x1="6.43262" y1="5.93359" x2="75.411" y2="81.6266" gradientUnits="userSpaceOnUse">
<stop stop-color="#566D74"/>
<stop offset="1" stop-color="#131A1C"/>
</linearGradient>
<radialGradient id="paint1_radial_525_12542" cx="0" cy="0" r="1" gradientUnits="userSpaceOnUse" gradientTransform="translate(42.3529 44.1621) rotate(43.9223) scale(17.9296)">
<stop stop-color="#4D646B"/>
<stop offset="1" stop-color="#131A1C"/>
<stop offset="1"/>
</radialGradient>
<linearGradient id="paint2_linear_525_12542" x1="45.5004" y1="18.1426" x2="45.5004" y2="71.8602" gradientUnits="userSpaceOnUse">
<stop stop-color="#111516"/>
<stop offset="1" stop-color="#4B5F65"/>
</linearGradient>
<linearGradient id="paint3_linear_525_12542" x1="45.5004" y1="18.1426" x2="45.5004" y2="71.8602" gradientUnits="userSpaceOnUse">
<stop stop-color="white" stop-opacity="0.33"/>
<stop offset="0.0001" stop-color="white" stop-opacity="0.23"/>
<stop offset="1" stop-color="white" stop-opacity="0.05"/>
</linearGradient>
</defs>
</svg>
